assets/static/svgs/logos/logo-bitcasino-full.svg

<svg width="1em" height="auto"  viewBox="0 0 1245 263" fill="none" xmlns="http://www.w3.org/2000/svg">
<symbol id="item"
width="1em"
height="auto"
viewBox="0 0 1245 263"
fill="none"
>
 <path d="M81.1426 254.626C81.1426 250.076 85.0226 246.356 89.7726 246.356C94.5226 246.356 98.4026 250.076 98.4026 254.626C98.4026 259.176 94.5226 262.896 89.7726 262.896C85.0226 262.896 81.1426 259.386 81.1426 254.626ZM81.1426 8.646C81.1426 4.096 85.0226 0.375977 89.7726 0.375977C94.5226 0.375977 98.4026 4.096 98.4026 8.646C98.4026 13.196 94.5226 16.916 89.7726 16.916C85.0226 16.916 81.1426 13.396 81.1426 8.646ZM37.9926 49.986C37.9926 45.436 41.8726 41.716 46.6226 41.716C51.3726 41.716 55.2526 45.436 55.2526 49.986C55.2526 54.536 51.3726 58.256 46.6226 58.256C41.8726 58.256 37.9926 54.736 37.9926 49.986ZM41.6626 91.326C41.6626 88.636 43.8226 86.576 46.6226 86.576C49.4226 86.576 51.5826 88.646 51.5826 91.326C51.5826 94.016 49.4226 96.076 46.6226 96.076C43.8226 96.076 41.6626 94.016 41.6626 91.326ZM0.662598 91.326C0.662598 89.876 1.95259 88.636 3.46259 88.636C4.97259 88.636 6.2626 89.876 6.2626 91.326C6.2626 92.776 4.97259 94.016 3.46259 94.016C1.95259 94.016 0.662598 92.986 0.662598 91.326ZM0.662598 129.986C0.662598 128.536 1.95259 127.296 3.46259 127.296C4.97259 127.296 6.2626 128.536 6.2626 129.986C6.2626 131.436 4.97259 132.676 3.46259 132.676C1.95259 132.676 0.662598 131.426 0.662598 129.986ZM0.662598 174.016C0.662598 172.566 1.95259 171.326 3.46259 171.326C4.97259 171.326 6.2626 172.566 6.2626 174.016C6.2626 175.466 4.97259 176.706 3.46259 176.706C1.95259 176.706 0.662598 175.666 0.662598 174.016ZM41.6626 129.986C41.6626 127.296 43.8226 125.236 46.6226 125.236C49.4226 125.236 51.5826 127.306 51.5826 129.986C51.5826 132.676 49.4226 134.736 46.6226 134.736C43.8226 134.736 41.6626 132.666 41.6626 129.986ZM41.6626 174.016C41.6626 171.326 43.8226 169.266 46.6226 169.266C49.4226 169.266 51.5826 171.336 51.5826 174.016C51.5826 176.706 49.4226 178.766 46.6226 178.766C43.8226 178.766 41.6626 176.696 41.6626 174.016ZM37.9926 215.356C37.9926 210.806 41.8726 207.086 46.6226 207.086C51.3726 207.086 55.2526 210.806 55.2526 215.356C55.2526 219.906 51.3726 223.626 46.6226 223.626C41.8726 223.626 37.9926 220.106 37.9926 215.356ZM75.3126 47.916C75.3126 39.646 82.0026 34.066 89.7726 34.066C98.4026 34.066 104.233 40.476 104.233 47.916C104.233 55.356 97.5426 61.766 89.7726 61.766C81.1426 61.766 75.3126 55.356 75.3126 47.916ZM122.783 49.986C122.783 41.716 129.473 36.136 137.243 36.136C145.873 36.136 151.703 42.546 151.703 49.986C151.703 57.426 145.013 63.836 137.243 63.836C128.613 63.836 122.783 57.426 122.783 49.986ZM122.783 215.356C122.783 207.086 129.473 201.506 137.243 201.506C145.873 201.506 151.703 207.916 151.703 215.356C151.703 222.796 145.013 229.206 137.243 229.206C128.613 229.206 122.783 222.796 122.783 215.356ZM122.783 130.606C122.783 122.336 129.473 116.756 137.243 116.756C145.873 116.756 151.703 123.166 151.703 130.606C151.703 138.046 145.013 144.456 137.243 144.456C128.613 144.456 122.783 138.046 122.783 130.606ZM75.3126 213.286C75.3126 205.016 82.0026 199.436 89.7726 199.436C98.4026 199.436 104.233 205.846 104.233 213.286C104.233 220.726 97.5426 227.136 89.7726 227.136C81.1426 227.136 75.3126 220.726 75.3126 213.286ZM72.7226 87.196C72.7226 77.276 80.7026 70.866 89.7626 70.866C100.123 70.866 106.803 78.516 106.803 87.196C106.803 95.876 98.8226 103.526 89.7626 103.526C79.4126 103.726 72.7226 96.086 72.7226 87.196ZM72.7226 174.016C72.7226 164.096 80.7026 157.686 89.7626 157.686C100.123 157.686 106.803 165.336 106.803 174.016C106.803 182.696 98.8226 190.346 89.7626 190.346C79.4126 190.546 72.7226 182.896 72.7226 174.016ZM160.543 97.326C155.793 88.846 159.033 78.926 167.663 74.176C176.513 69.626 186.863 72.726 191.823 80.996C196.573 89.476 193.333 99.396 184.703 104.146C182.333 105.596 179.093 106.416 176.723 106.416C170.033 106.626 163.563 102.696 160.543 97.326ZM72.2926 138.866C66.9026 129.356 70.5626 118.196 80.4926 113.026C90.4126 107.856 102.073 111.376 107.463 120.876C112.853 130.386 109.193 141.546 99.2626 146.716C96.4626 148.366 93.0026 149.406 90.2026 149.406C83.0826 149.206 75.7426 145.076 72.2926 138.866ZM157.303 181.656C151.473 171.526 155.363 159.536 165.933 153.956C176.503 148.376 189.023 152.096 194.843 162.226C200.673 172.356 196.783 184.346 186.213 189.926C183.413 191.786 179.523 192.616 176.503 192.616C168.953 192.616 161.183 188.066 157.303 181.656Z" fill="#FF5111"/> <path d="M350.243 194.02H297.553V68.49H348.293C362.083 68.49 372.453 71.61 379.413 77.86C386.363 84.11 389.843 92.36 389.843 102.61C389.843 109.21 388.223 114.93 384.983 119.76C381.743 124.59 377.293 128.19 371.633 130.54C377.883 132.66 382.833 136.23 386.483 141.24C390.133 146.25 391.963 152.11 391.963 158.83C391.963 169.91 388.373 178.54 381.183 184.73C373.993 190.93 363.683 194.02 350.243 194.02ZM350.073 140.27H318.603V174.57H349.893C363.563 174.57 370.403 168.85 370.403 157.42C370.403 152 368.633 147.78 365.103 144.78C361.563 141.78 356.553 140.27 350.073 140.27ZM348.483 87.94H318.603V120.65H348.483C361.683 120.65 368.283 115.23 368.283 104.38C368.283 99.19 366.633 95.16 363.333 92.27C360.033 89.39 355.083 87.94 348.483 87.94ZM402.873 121V102.26H437.353V194.02H416.313V121H402.873ZM426.923 86.88C423.033 86.88 419.853 85.67 417.373 83.26C414.893 80.84 413.663 77.75 413.663 73.98C413.663 70.09 414.903 66.91 417.373 64.43C419.853 61.95 423.033 60.72 426.923 60.72C430.693 60.72 433.823 61.96 436.293 64.43C438.763 66.9 440.003 70.09 440.003 73.98C440.003 77.75 438.763 80.85 436.293 83.26C433.823 85.67 430.693 86.88 426.923 86.88ZM502.533 175.28V193.49C499.943 194.2 496.283 194.55 491.573 194.55C473.653 194.55 464.703 185.53 464.703 167.5V119.06H450.733V102.26H464.703V78.4H485.743V102.27H502.893V119.07H485.743V165.39C485.743 172.58 489.163 176.17 495.993 176.17L502.533 175.28ZM510.253 148.23C510.253 134.68 514.553 123.27 523.163 114.02C531.763 104.77 542.733 100.14 556.043 100.14C568.653 100.14 578.703 103.71 586.183 110.84C593.663 117.97 598.113 126.19 599.533 135.5H577.963C576.663 130.43 574.043 126.37 570.093 123.3C566.143 120.24 561.403 118.7 555.863 118.7C548.433 118.7 542.483 121.44 538.003 126.92C533.523 132.4 531.283 139.5 531.283 148.22C531.283 156.94 533.523 164.01 538.003 169.44C542.483 174.87 548.433 177.57 555.863 177.57C561.403 177.57 566.143 176.04 570.093 172.97C574.043 169.91 576.663 165.84 577.963 160.77H599.533C598.123 170.08 593.673 178.3 586.183 185.43C578.693 192.56 568.653 196.13 556.043 196.13C542.723 196.13 531.763 191.5 523.163 182.25C514.553 173.01 510.253 161.67 510.253 148.23ZM671.433 154.77C650.923 154.77 638.903 155.71 635.363 157.6C631.713 159.49 629.883 162.9 629.883 167.85C629.883 175.75 635.123 179.7 645.623 179.7C662.833 179.7 671.433 172.98 671.433 159.54V154.77ZM641.903 196.14C631.063 196.14 622.983 193.49 617.683 188.18C612.383 182.88 609.723 175.86 609.723 167.14C609.723 155.94 614.673 148.1 624.573 143.63C626.933 142.57 629.203 141.77 631.383 141.24C633.563 140.71 638.013 140.18 644.733 139.65C651.453 139.12 660.353 138.85 671.433 138.85V134.25C671.433 123.05 664.893 117.45 651.813 117.45C640.383 117.45 633.893 121.99 632.363 131.06H611.853C612.793 122.1 616.543 114.71 623.083 108.87C629.623 103.04 639.373 100.12 652.343 100.12C665.423 100.12 675.293 103.13 681.953 109.14C688.613 115.15 691.943 123.58 691.943 134.42V194H672.493V184.28C665.893 192.19 655.693 196.14 641.903 196.14ZM746.863 196.14C734.253 196.14 724.763 193.19 718.403 187.3C712.043 181.41 708.563 173.86 707.973 164.67H728.303C728.543 168.91 730.363 172.33 733.783 174.92C737.203 177.51 741.973 178.81 748.103 178.81C753.523 178.81 757.713 177.87 760.653 175.98C763.603 174.09 765.073 171.56 765.073 168.38C765.073 164.84 763.273 162.22 759.683 160.51C756.093 158.8 751.693 157.53 746.513 156.71C741.323 155.88 736.143 154.79 730.953 153.44C725.763 152.08 721.373 149.4 717.783 145.4C714.193 141.39 712.393 135.91 712.393 128.96C712.393 120.95 715.723 114.14 722.383 108.54C729.043 102.94 737.853 100.14 748.813 100.14C755.063 100.14 760.573 101.11 765.343 103.06C770.113 105 773.833 107.57 776.483 110.75C779.133 113.93 781.143 117.17 782.493 120.47C783.853 123.77 784.643 127.13 784.883 130.55H764.723C764.373 126.9 762.803 123.77 760.033 121.18C757.263 118.59 753.343 117.29 748.273 117.29C743.203 117.29 739.313 118.26 736.603 120.21C733.893 122.16 732.533 124.84 732.533 128.25C732.533 131.43 734.333 133.85 737.923 135.5C741.513 137.15 745.913 138.39 751.093 139.21C756.283 140.04 761.463 141.18 766.653 142.66C771.843 144.14 776.233 146.93 779.823 151.06C783.413 155.19 785.213 160.67 785.213 167.5C785.213 175.75 781.883 182.59 775.223 188.01C768.583 193.43 759.123 196.14 746.863 196.14ZM793.483 121V102.26H827.963V194.02H806.923V121H793.483ZM817.523 86.88C813.633 86.88 810.453 85.67 807.973 83.26C805.493 80.85 804.263 77.75 804.263 73.98C804.263 70.09 805.503 66.91 807.973 64.43C810.443 61.95 813.633 60.72 817.523 60.72C821.293 60.72 824.423 61.96 826.893 64.43C829.373 66.91 830.603 70.09 830.603 73.98C830.603 77.75 829.363 80.85 826.893 83.26C824.423 85.67 821.303 86.88 817.523 86.88ZM871.393 102.26V114.46C873.513 110.45 877.023 107.06 881.913 104.29C886.803 101.52 892.723 100.14 899.683 100.14C910.523 100.14 918.923 103.44 924.873 110.04C930.823 116.64 933.803 125.42 933.803 136.38V194.02H912.763V139.04C912.763 132.56 911.263 127.46 908.253 123.75C905.243 120.04 900.683 118.18 894.553 118.18C887.833 118.18 882.563 120.18 878.733 124.19C874.903 128.2 872.983 133.74 872.983 140.81V194.03H851.943V102.27H871.393V102.26ZM998.633 196.14C984.493 196.14 973.023 191.48 964.243 182.17C955.463 172.86 951.073 161.54 951.073 148.22C951.073 134.9 955.463 123.56 964.243 114.19C973.023 104.82 984.483 100.13 998.633 100.13C1012.89 100.13 1024.41 104.82 1033.19 114.19C1041.97 123.56 1046.36 134.9 1046.36 148.22C1046.36 161.54 1041.97 172.85 1033.19 182.17C1024.41 191.49 1012.89 196.14 998.633 196.14ZM972.113 148.23C972.113 156.95 974.613 164.02 979.623 169.45C984.633 174.88 990.963 177.58 998.633 177.58C1006.41 177.58 1012.8 174.87 1017.81 169.45C1022.82 164.03 1025.32 156.96 1025.32 148.23C1025.32 139.39 1022.82 132.26 1017.81 126.84C1012.8 121.42 1006.41 118.71 998.633 118.71C990.973 118.71 984.633 121.42 979.623 126.84C974.613 132.26 972.113 139.39 972.113 148.23ZM1073.35 195.44C1069.11 195.44 1065.6 194.11 1062.83 191.46C1060.06 188.81 1058.68 185.36 1058.68 181.12C1058.68 176.99 1060.06 173.55 1062.83 170.78C1065.6 168.01 1069.11 166.63 1073.35 166.63C1077.48 166.63 1080.92 168.01 1083.69 170.78C1086.46 173.55 1087.84 177 1087.84 181.12C1087.84 185.36 1086.48 188.81 1083.77 191.46C1081.07 194.11 1077.6 195.44 1073.35 195.44ZM1097.12 121V102.26H1131.6V194.02H1110.56V121H1097.12ZM1121.16 86.88C1117.27 86.88 1114.09 85.67 1111.61 83.26C1109.13 80.84 1107.9 77.75 1107.9 73.98C1107.9 70.09 1109.14 66.91 1111.61 64.43C1114.09 61.95 1117.27 60.72 1121.16 60.72C1124.93 60.72 1128.06 61.96 1130.53 64.43C1133.01 66.91 1134.24 70.09 1134.24 73.98C1134.24 77.75 1133 80.85 1130.53 83.26C1128.06 85.67 1124.93 86.88 1121.16 86.88ZM1197.26 196.14C1183.12 196.14 1171.65 191.48 1162.87 182.17C1154.09 172.86 1149.7 161.54 1149.7 148.22C1149.7 134.9 1154.09 123.56 1162.87 114.19C1171.65 104.82 1183.11 100.13 1197.26 100.13C1211.52 100.13 1223.04 104.82 1231.82 114.19C1240.6 123.56 1244.99 134.9 1244.99 148.22C1244.99 161.54 1240.6 172.85 1231.82 182.17C1223.04 191.49 1211.52 196.14 1197.26 196.14ZM1170.74 148.23C1170.74 156.95 1173.24 164.02 1178.25 169.45C1183.26 174.88 1189.59 177.58 1197.26 177.58C1205.04 177.58 1211.43 174.87 1216.44 169.45C1221.45 164.03 1223.95 156.96 1223.95 148.23C1223.95 139.39 1221.45 132.26 1216.44 126.84C1211.43 121.42 1205.04 118.71 1197.26 118.71C1189.6 118.71 1183.26 121.42 1178.25 126.84C1173.24 132.26 1170.74 139.39 1170.74 148.23Z" fill="currentColor"/> 
</symbol>
</svg>

<svg width="1em" height="auto"    viewBox="0 0 1245 263" fill="none" xmlns="http://www.w3.org/2000/svg">
<symbol id="item"
width="1em"
height="auto"
viewBox="0 0 1245 263"
fill="none"
>
<path d="M81.143 254.626c0-4.55 3.88-8.27 8.63-8.27 4.75 0 8.63 3.72 8.63 8.27 0 4.55-3.88 8.27-8.63 8.27-4.75 0-8.63-3.51-8.63-8.27Zm0-245.98c0-4.55 3.88-8.27 8.63-8.27 4.75 0 8.63 3.72 8.63 8.27 0 4.55-3.88 8.27-8.63 8.27-4.75 0-8.63-3.52-8.63-8.27Zm-43.15 41.34c0-4.55 3.88-8.27 8.63-8.27 4.75 0 8.63 3.72 8.63 8.27 0 4.55-3.88 8.27-8.63 8.27-4.75 0-8.63-3.52-8.63-8.27Zm3.67 41.34c0-2.69 2.16-4.75 4.96-4.75s4.96 2.07 4.96 4.75c0 2.69-2.16 4.75-4.96 4.75s-4.96-2.06-4.96-4.75Zm-41 0c0-1.45 1.29-2.69 2.8-2.69 1.51 0 2.8 1.24 2.8 2.69s-1.29 2.69-2.8 2.69c-1.51 0-2.8-1.03-2.8-2.69Zm0 38.66c0-1.45 1.29-2.69 2.8-2.69 1.51 0 2.8 1.24 2.8 2.69s-1.29 2.69-2.8 2.69c-1.51 0-2.8-1.25-2.8-2.69Zm0 44.03c0-1.45 1.29-2.69 2.8-2.69 1.51 0 2.8 1.24 2.8 2.69s-1.29 2.69-2.8 2.69c-1.51 0-2.8-1.04-2.8-2.69Zm41-44.03c0-2.69 2.16-4.75 4.96-4.75s4.96 2.07 4.96 4.75c0 2.69-2.16 4.75-4.96 4.75s-4.96-2.07-4.96-4.75Zm0 44.03c0-2.69 2.16-4.75 4.96-4.75s4.96 2.07 4.96 4.75c0 2.69-2.16 4.75-4.96 4.75s-4.96-2.07-4.96-4.75Zm-3.67 41.34c0-4.55 3.88-8.27 8.63-8.27 4.75 0 8.63 3.72 8.63 8.27 0 4.55-3.88 8.27-8.63 8.27-4.75 0-8.63-3.52-8.63-8.27Zm37.32-167.44c0-8.27 6.69-13.85 14.46-13.85 8.63 0 14.46 6.41 14.46 13.85 0 7.44-6.69 13.85-14.46 13.85-8.63 0-14.46-6.41-14.46-13.85Zm47.47 2.07c0-8.27 6.69-13.85 14.46-13.85 8.63 0 14.46 6.41 14.46 13.85 0 7.44-6.69 13.85-14.46 13.85-8.63 0-14.46-6.41-14.46-13.85Zm0 165.37c0-8.27 6.69-13.85 14.46-13.85 8.63 0 14.46 6.41 14.46 13.85 0 7.44-6.69 13.85-14.46 13.85-8.63 0-14.46-6.41-14.46-13.85Zm0-84.75c0-8.27 6.69-13.85 14.46-13.85 8.63 0 14.46 6.41 14.46 13.85 0 7.44-6.69 13.85-14.46 13.85-8.63 0-14.46-6.41-14.46-13.85Zm-47.47 82.68c0-8.27 6.69-13.85 14.46-13.85 8.63 0 14.46 6.41 14.46 13.85 0 7.44-6.69 13.85-14.46 13.85-8.63 0-14.46-6.41-14.46-13.85Zm-2.59-126.09c0-9.92 7.98-16.33 17.04-16.33 10.36 0 17.04 7.65 17.04 16.33 0 8.68-7.98 16.33-17.04 16.33-10.35.2-17.04-7.44-17.04-16.33Zm0 86.82c0-9.92 7.98-16.33 17.04-16.33 10.36 0 17.04 7.65 17.04 16.33 0 8.68-7.98 16.33-17.04 16.33-10.35.2-17.04-7.45-17.04-16.33Zm87.82-76.69c-4.75-8.48-1.51-18.4 7.12-23.15 8.85-4.55 19.2-1.45 24.16 6.82 4.75 8.48 1.51 18.4-7.12 23.15-2.37 1.45-5.61 2.27-7.98 2.27-6.69.21-13.16-3.72-16.18-9.09Zm-88.25 41.54c-5.39-9.51-1.73-20.67 8.2-25.84 9.92-5.17 21.58-1.65 26.97 7.85 5.39 9.51 1.73 20.67-8.2 25.84-2.8 1.65-6.26 2.69-9.06 2.69-7.12-.2-14.46-4.33-17.91-10.54Zm85.01 42.79c-5.83-10.13-1.94-22.12 8.63-27.7 10.57-5.58 23.09-1.86 28.91 8.27 5.83 10.13 1.94 22.12-8.63 27.7-2.8 1.86-6.69 2.69-9.71 2.69-7.55 0-15.32-4.55-19.2-10.96Z" fill="#FF5111"/><path d="M350.243 194.02h-52.69V68.49h50.74c13.79 0 24.16 3.12 31.12 9.37 6.95 6.25 10.43 14.5 10.43 24.75 0 6.6-1.62 12.32-4.86 17.15-3.24 4.83-7.69 8.43-13.35 10.78 6.25 2.12 11.2 5.69 14.85 10.7 3.65 5.01 5.48 10.87 5.48 17.59 0 11.08-3.59 19.71-10.78 25.9-7.19 6.2-17.5 9.29-30.94 9.29Zm-.17-53.75h-31.47v34.3h31.29c13.67 0 20.51-5.72 20.51-17.15 0-5.42-1.77-9.64-5.3-12.64-3.54-3-8.55-4.51-15.03-4.51Zm-1.59-52.33h-29.88v32.71h29.88c13.2 0 19.8-5.42 19.8-16.27 0-5.19-1.65-9.22-4.95-12.11-3.3-2.88-8.25-4.33-14.85-4.33Zm54.39 33.06v-18.74h34.48v91.76h-21.04V121h-13.44Zm24.05-34.12c-3.89 0-7.07-1.21-9.55-3.62-2.48-2.42-3.71-5.51-3.71-9.28 0-3.89 1.24-7.07 3.71-9.55 2.48-2.48 5.66-3.71 9.55-3.71 3.77 0 6.9 1.24 9.37 3.71 2.47 2.47 3.71 5.66 3.71 9.55 0 3.77-1.24 6.87-3.71 9.28-2.47 2.41-5.6 3.62-9.37 3.62Zm75.61 88.4v18.21c-2.59.71-6.25 1.06-10.96 1.06-17.92 0-26.87-9.02-26.87-27.05v-48.44h-13.97v-16.8h13.97V78.4h21.04v23.87h17.15v16.8h-17.15v46.32c0 7.19 3.42 10.78 10.25 10.78l6.54-.89Zm7.72-27.05c0-13.55 4.3-24.96 12.91-34.21 8.6-9.25 19.57-13.88 32.88-13.88 12.61 0 22.66 3.57 30.14 10.7 7.48 7.13 11.93 15.35 13.35 24.66h-21.57c-1.3-5.07-3.92-9.13-7.87-12.2-3.95-3.06-8.69-4.6-14.23-4.6-7.43 0-13.38 2.74-17.86 8.22-4.48 5.48-6.72 12.58-6.72 21.3s2.24 15.79 6.72 21.22c4.48 5.43 10.43 8.13 17.86 8.13 5.54 0 10.28-1.53 14.23-4.6 3.95-3.06 6.57-7.13 7.87-12.2h21.57c-1.41 9.31-5.86 17.53-13.35 24.66-7.49 7.13-17.53 10.7-30.14 10.7-13.32 0-24.28-4.63-32.88-13.88-8.61-9.24-12.91-20.58-12.91-34.02Zm161.18 6.54c-20.51 0-32.53.94-36.07 2.83-3.65 1.89-5.48 5.3-5.48 10.25 0 7.9 5.24 11.85 15.74 11.85 17.21 0 25.81-6.72 25.81-20.16v-4.77Zm-29.53 41.37c-10.84 0-18.92-2.65-24.22-7.96-5.3-5.3-7.96-12.32-7.96-21.04 0-11.2 4.95-19.04 14.85-23.51 2.36-1.06 4.63-1.86 6.81-2.39 2.18-.53 6.63-1.06 13.35-1.59s15.62-.8 26.7-.8v-4.6c0-11.2-6.54-16.8-19.62-16.8-11.43 0-17.92 4.54-19.45 13.61h-20.51c.94-8.96 4.69-16.35 11.23-22.19 6.54-5.83 16.29-8.75 29.26-8.75 13.08 0 22.95 3.01 29.61 9.02s9.99 14.44 9.99 25.28V194h-19.45v-9.72c-6.6 7.91-16.8 11.86-30.59 11.86Zm104.96 0c-12.61 0-22.1-2.95-28.46-8.84-6.36-5.89-9.84-13.44-10.43-22.63h20.33c.24 4.24 2.06 7.66 5.48 10.25 3.42 2.59 8.19 3.89 14.32 3.89 5.42 0 9.61-.94 12.55-2.83 2.95-1.89 4.42-4.42 4.42-7.6 0-3.54-1.8-6.16-5.39-7.87s-7.99-2.98-13.17-3.8c-5.19-.83-10.37-1.92-15.56-3.27-5.19-1.36-9.58-4.04-13.17-8.04-3.59-4.01-5.39-9.49-5.39-16.44 0-8.01 3.33-14.82 9.99-20.42 6.66-5.6 15.47-8.4 26.43-8.4 6.25 0 11.76.97 16.53 2.92 4.77 1.94 8.49 4.51 11.14 7.69 2.65 3.18 4.66 6.42 6.01 9.72 1.36 3.3 2.15 6.66 2.39 10.08h-20.16c-.35-3.65-1.92-6.78-4.69-9.37-2.77-2.59-6.69-3.89-11.76-3.89-5.07 0-8.96.97-11.67 2.92-2.71 1.95-4.07 4.63-4.07 8.04 0 3.18 1.8 5.6 5.39 7.25 3.59 1.65 7.99 2.89 13.17 3.71 5.19.83 10.37 1.97 15.56 3.45 5.19 1.48 9.58 4.27 13.17 8.4 3.59 4.13 5.39 9.61 5.39 16.44 0 8.25-3.33 15.09-9.99 20.51-6.64 5.42-16.1 8.13-28.36 8.13Zm46.62-75.14v-18.74h34.48v91.76h-21.04V121h-13.44Zm24.04-34.12c-3.89 0-7.07-1.21-9.55-3.62-2.48-2.41-3.71-5.51-3.71-9.28 0-3.89 1.24-7.07 3.71-9.55 2.47-2.48 5.66-3.71 9.55-3.71 3.77 0 6.9 1.24 9.37 3.71 2.48 2.48 3.71 5.66 3.71 9.55 0 3.77-1.24 6.87-3.71 9.28-2.47 2.41-5.59 3.62-9.37 3.62Zm53.87 15.38v12.2c2.12-4.01 5.63-7.4 10.52-10.17 4.89-2.77 10.81-4.15 17.77-4.15 10.84 0 19.24 3.3 25.19 9.9 5.95 6.6 8.93 15.38 8.93 26.34v57.64h-21.04v-54.98c0-6.48-1.5-11.58-4.51-15.29-3.01-3.71-7.57-5.57-13.7-5.57-6.72 0-11.99 2-15.82 6.01s-5.75 9.55-5.75 16.62v53.22h-21.04v-91.76h19.45v-.01Zm127.24 93.88c-14.14 0-25.61-4.66-34.39-13.97-8.78-9.31-13.17-20.63-13.17-33.95 0-13.32 4.39-24.66 13.17-34.03 8.78-9.37 20.24-14.06 34.39-14.06 14.257 0 25.777 4.69 34.557 14.06 8.78 9.37 13.17 20.71 13.17 34.03s-4.39 24.63-13.17 33.95c-8.78 9.32-20.3 13.97-34.557 13.97Zm-26.52-47.91c0 8.72 2.5 15.79 7.51 21.22s11.34 8.13 19.01 8.13c7.777 0 14.167-2.71 19.177-8.13 5.01-5.42 7.51-12.49 7.51-21.22 0-8.84-2.5-15.97-7.51-21.39s-11.4-8.13-19.177-8.13c-7.66 0-14 2.71-19.01 8.13-5.01 5.42-7.51 12.55-7.51 21.39Zm101.237 47.21c-4.24 0-7.75-1.33-10.52-3.98-2.77-2.65-4.15-6.1-4.15-10.34 0-4.13 1.38-7.57 4.15-10.34 2.77-2.77 6.28-4.15 10.52-4.15 4.13 0 7.57 1.38 10.34 4.15 2.77 2.77 4.15 6.22 4.15 10.34 0 4.24-1.36 7.69-4.07 10.34-2.7 2.65-6.17 3.98-10.42 3.98Zm23.77-74.44v-18.74h34.48v91.76h-21.04V121h-13.44Zm24.04-34.12c-3.89 0-7.07-1.21-9.55-3.62-2.48-2.42-3.71-5.51-3.71-9.28 0-3.89 1.24-7.07 3.71-9.55 2.48-2.48 5.66-3.71 9.55-3.71 3.77 0 6.9 1.24 9.37 3.71 2.48 2.48 3.71 5.66 3.71 9.55 0 3.77-1.24 6.87-3.71 9.28-2.47 2.41-5.6 3.62-9.37 3.62Zm76.1 109.26c-14.14 0-25.61-4.66-34.39-13.97-8.78-9.31-13.17-20.63-13.17-33.95 0-13.32 4.39-24.66 13.17-34.03 8.78-9.37 20.24-14.06 34.39-14.06 14.26 0 25.78 4.69 34.56 14.06 8.78 9.37 13.17 20.71 13.17 34.03s-4.39 24.63-13.17 33.95c-8.78 9.32-20.3 13.97-34.56 13.97Zm-26.52-47.91c0 8.72 2.5 15.79 7.51 21.22s11.34 8.13 19.01 8.13c7.78 0 14.17-2.71 19.18-8.13 5.01-5.42 7.51-12.49 7.51-21.22 0-8.84-2.5-15.97-7.51-21.39s-11.4-8.13-19.18-8.13c-7.66 0-14 2.71-19.01 8.13-5.01 5.42-7.51 12.55-7.51 21.39Z" fill="currentColor"/>
</symbol>
</svg>
